X:1
T:I Wish They'd Do it Now
M:2/4
L:1/8
K:F
 FG| Ac cA| G F2 G| Ac cd| c3 c| de fe| d c2 c| dG GA| G2 FG| Ac cA|\
 G F2 G| Ac cd| c3 c| de fe| dc AA| GF FG| F2 fe| dc cA| c2 fe| dc cA|\
 G2 FG| Ac cA| dc AA| GF FG| F2||
